
{
	0.5.wait;
	Pdef(\chirping_sparrow).play;
	0.5.wait;
	Pdef(\yellow_warbler).play;
	0.5.wait;
	Pdef(\orchard_oriele).play;
	0.5.wait;
	Pdef(\cassins_kingbird).play;
	0.5.wait;
	Pdef(\windchimes_high).play;
	0.5.wait;
	Pdef(\windchimes).play;
	0.5.wait;
	Pdef(\woodchimes).play;

}.fork;